X:1
T: Mrs. Gordon of Park
C:William Marshall
R:Strathspey
Q: 128
K:A
M:4/4
L:1/16
|:CE3 E3F E3C EA3|CE3 E2FG AC3 B,3D|CE3 E2FG A3B cA3|d3e fedc dcBA F4|
CE3 E3F E3C EA3|CE3 E2FG AC3 B,3D|CE3 E2FG A3B cA3|d3e fedc dcBA F4|
ec3 a3g agfe a4|ec3 a3g fedc B2cd|e3c d3B c3A B3G|Ac3 FA3 EC3 B,4|
ec3 a3g agfe a4|ec3 a3g fedc B2cd|fedc edcB dcBA cBAG|Ac3 FA3 EC3 A,4:|
